!!!COM: Louise Reichardt
!!!CNT: Deutsch
!!!TXO: Deutsch
!!!OTL: Sensucht dem Vaterlande
!!!LYR: Novalis (Georg Friedrich Freiherr von Hardenberg)
!!!OPR: 
!!!OPS: No opus information available
!!!ONM: No. 18
!!!ENC: Ben Fuhrman
!!!YOR: Louise Reichardt: Songs
!!!YOR: New York, Da Capo Press, 1981
!!!ODT: 1800 - 1826
!!NB: Only vocal melody encoded.
!!NB: First instance of melodic material only encoded.
!!created: 2/18/10 1:53PM
!!proofed and posted: 2/18/10 1:53PM
**kern	**silbe
*clef G2	*
*k[b-e-a-]	*
*M4/4	*
*MM[Sehr ausdrucksvoll und langsam]	*
=1	=1
{4g	{Bricht
4g	des
4.a-	mat-
8g	-te
=2	=2
4.f	Herz
8g	noch
4f	im-
4e-	-mer
=3	=3
4.b-	un-
8e-	-ter
(8e-	frem-
8d)	|
4e-	-den
=4	=4
(4fS	Him-
8g)	|
8a-	-mel
(a-q	nicht
4g)}	nicht}
4r	.
=5	=5
{4.g	{kommt
8g	der
4.cc	Hoff-
8cc	-nung
=6	=6
(4dd-	blei-
8cc)	|
8b-	-cher
(8.b-	Schim-
16an)	|
8an	-mer
8r	.
=7	=7
4b-	im-
4dn	-mer
4c	noch
(8.g	mir
16f)	|
=8	=8
(4.f	zu
16e-)	|
16c	Ge-
4B-}	-sicht.}
4r	.
=9	=9
{4a-	{Darf
4g	ich
4f	wohl
4e-	noch
=10	=10
4d	Ru2ck-
4e-	-ehr
8g	wa2h-
8f}	-nen,}
4r	.
=11	=11
{4a-	{Strohm-
4g-	-weis'
4f	stu2r-
4e-	-zen
=12	=12
4d	mei-
4e-	-ne
8g-	Thra2-
8f}	-nen}
4r	.
=13	=13
{4.bb-	bis
8bn	mein
4cc	Herz
4cc	im
=14	=14
4.b-	Kum-
8d	-mer
2e-}	bricht.}
==	==
*-	*-
